X: 22750
T: Land Of Sunshine, The
R: reel
M: 4/4
K: Dmajor
|:(3A,B,C|"D"D2FD "A"CEAG|"D"Fddc dAFA|"Em"GBeG "D"FADF|"Em"GFED "A"CEA,C|
"D"D2FD "A"CEAG|"D"Fddc dAFA|"em"GBed "A"cAGE|EDCE "D"D2:|
|:fg|"D"afdf "A"gece|"D"df"A"ec "D"dAFA|"Em"GBeG "D"FAdf|"Em"gee^d "A"efg^g|
"D"afdf "A"gece|"D"df "A"ec "D"dAFA|"Em"GBed "A"cAGE|EDCE "D"D2:|

